X: 25776
T: Maryann's Choice
R: jig
M: 6/8
K: Gmajor
|:B2d dcB|BAG GBd|e3 edB|A3 ABc|
B2d dcB|BAG GBd|e2g dBA|G3 GBc:|
|:BGB dgf|e3 edB|e3 egb|a3 aga|
bag age|ged edB|ABc B2A|G3 GBc:|

